src/assets/outline/Chart3.svg

<svg width="24" height="24" viewBox="0 0 24 24"  xmlns="http://www.w3.org/2000/svg">
<path d="M21 22.75H3C2.59 22.75 2.25 22.41 2.25 22C2.25 21.59 2.59 21.25 3 21.25H21C21.41 21.25 21.75 21.59 21.75 22C21.75 22.41 21.41 22.75 21 22.75Z" />
<path d="M5.59998 19.7499H4C3.04 19.7499 2.25 18.9599 2.25 17.9999V9.37988C2.25 8.41988 3.04 7.62988 4 7.62988H5.59998C6.55998 7.62988 7.34998 8.41988 7.34998 9.37988V17.9999C7.34998 18.9599 6.55998 19.7499 5.59998 19.7499ZM4 9.11987C3.86 9.11987 3.75 9.22987 3.75 9.36987V17.9999C3.75 18.1399 3.86 18.2499 4 18.2499H5.59998C5.73998 18.2499 5.84998 18.1399 5.84998 17.9999V9.37988C5.84998 9.23988 5.73998 9.12988 5.59998 9.12988H4V9.11987Z" />
<path d="M12.8002 19.7504H11.2002C10.2402 19.7504 9.4502 18.9604 9.4502 18.0004V6.19043C9.4502 5.23043 10.2402 4.44043 11.2002 4.44043H12.8002C13.7602 4.44043 14.5502 5.23043 14.5502 6.19043V18.0004C14.5502 18.9604 13.7602 19.7504 12.8002 19.7504ZM11.2002 5.94043C11.0602 5.94043 10.9502 6.05043 10.9502 6.19043V18.0004C10.9502 18.1404 11.0602 18.2504 11.2002 18.2504H12.8002C12.9402 18.2504 13.0502 18.1404 13.0502 18.0004V6.19043C13.0502 6.05043 12.9402 5.94043 12.8002 5.94043H11.2002Z" />
<path d="M19.9999 19.75H18.3999C17.4399 19.75 16.6499 18.96 16.6499 18V3C16.6499 2.04 17.4399 1.25 18.3999 1.25H19.9999C20.9599 1.25 21.7499 2.04 21.7499 3V18C21.7499 18.96 20.9599 19.75 19.9999 19.75ZM18.3999 2.75C18.2599 2.75 18.1499 2.86 18.1499 3V18C18.1499 18.14 18.2599 18.25 18.3999 18.25H19.9999C20.1399 18.25 20.2499 18.14 20.2499 18V3C20.2499 2.86 20.1399 2.75 19.9999 2.75H18.3999Z" />
</svg>

<?xml version="1.0" encoding="UTF-8"?>
<svg width="24" height="24" viewBox="0 0 24 24" xmlns="http://www.w3.org/2000/svg">
 <path d="m21 22.75h-18c-0.41 0-0.75-0.34-0.75-0.75s0.34-0.75 0.75-0.75h18c0.41 0 0.75 0.34 0.75 0.75s-0.34 0.75-0.75 0.75z"/>
 <path d="m5.6 19.75h-1.6c-0.96 0-1.75-0.79-1.75-1.75v-8.62c0-0.96 0.79-1.75 1.75-1.75h1.6c0.96 0 1.75 0.79 1.75 1.75v8.62c0 0.96-0.79 1.75-1.75 1.75zm-1.6-10.63c-0.14 0-0.25 0.11-0.25 0.25v8.63c0 0.14 0.11 0.25 0.25 0.25h1.6c0.14 0 0.25-0.11 0.25-0.25v-8.62c0-0.14-0.11-0.25-0.25-0.25h-1.6v-0.01001z"/>
 <path d="m12.8 19.75h-1.6c-0.96 0-1.75-0.79-1.75-1.75v-11.81c0-0.96 0.79-1.75 1.75-1.75h1.6c0.96 0 1.75 0.79 1.75 1.75v11.81c0 0.96-0.79 1.75-1.75 1.75zm-1.6-13.81c-0.14 0-0.25 0.11-0.25 0.25v11.81c0 0.14 0.11 0.25 0.25 0.25h1.6c0.14 0 0.25-0.11 0.25-0.25v-11.81c0-0.14-0.11-0.25-0.25-0.25h-1.6z"/>
 <path d="m20 19.75h-1.6c-0.96 0-1.75-0.79-1.75-1.75v-15c0-0.96 0.79-1.75 1.75-1.75h1.6c0.96 0 1.75 0.79 1.75 1.75v15c0 0.96-0.79 1.75-1.75 1.75zm-1.6-17c-0.14 0-0.25 0.11-0.25 0.25v15c0 0.14 0.11 0.25 0.25 0.25h1.6c0.14 0 0.25-0.11 0.25-0.25v-15c0-0.14-0.11-0.25-0.25-0.25h-1.6z"/>
</svg>
